!! 00000] TT[WS
!!!OTL: Qongren nan
!!!ARE: Asia, China, Shanxi Xiyang
!! Ethnic Group: Han
!! WI, 78 (1)
!!!SCT: J0095
!!!YEM: Copyright 1995, estate of Helmut Schaffrath.
**kern
*ICvox
*Ivox
*M2/4
*k[b-e-a-]
*E-:
{8e-
8d
8c
16B-
16c
=1
8e-
8d
8c
8G
=2
8B-
8c
8e-
8f
=3
8b-
8f
4e-}
=4
{8r
8b-
8d
8f
=5
8.g
16d
8c
8G
=6
8B-
16B-
16c
8e-
8d
=7
8c
8B-
[4F
=8
4F]
4r}
==
!!!AGN: Xiaodiao. Suku
!!!ONB: ESAC (Essen Associative Code) Database: CHINA
!!!AMT: simple duple
!!!AIN: vox
!!!EED: Helmut Schaffrath
!!!EEV: 1.0
*-
!!!ONB: Tied note syntax fixed by Craig Sapp, 2004/05/03/
